brandFactory_export/2.Regular/Archivo comprimido_2Regular.svg

<?xml version="1.0" encoding="UTF-8"?>
<svg width="24px" height="24px" viewBox="0 0 24 24" version="1.1" xmlns="http://www.w3.org/2000/svg" xmlns:xlink="http://www.w3.org/1999/xlink">
    <title>2.Regular/Archivo comprimido_2Regular</title>
    <g id="Symbols" stroke="none" stroke-width="1" fill="none" fill-rule="evenodd">
        <g id="2.Regular/Archivo-comprimido_2Regular" fill="#5CB615" fill-rule="nonzero">
            <path d="M6.99663866,16.789916 L9.16806723,16.789916 L9.16806723,15.8117647 L6.99663866,15.8117647 L6.99663866,16.789916 Z M19.3193277,21.9663866 C19.3193277,22.0537815 19.205042,22.1714286 19.087395,22.1714286 L4.68739496,22.1714286 C4.5697479,22.1714286 4.45210084,22.0403361 4.45210084,21.9663866 L4.45210084,1.65714286 C4.45882353,1.58319328 4.59663866,1.4487395 4.68739496,1.4487395 L7.39327731,1.4487395 L7.39327731,3.82521008 L6.27058824,3.82521008 C5.87731092,3.82521008 5.55798319,4.1512605 5.55798319,4.5512605 C5.55798319,4.9512605 5.87731092,5.27731092 6.27058824,5.27731092 L7.39327731,5.27731092 L7.39327731,7.10588235 L6.27058824,7.10588235 C5.87731092,7.10588235 5.55798319,7.43193277 5.55798319,7.83193277 C5.55798319,8.23193277 5.87731092,8.55798319 6.27058824,8.55798319 L7.39327731,8.55798319 L7.39327731,10.3865546 L6.27058824,10.3865546 C5.87731092,10.3865546 5.55798319,10.712605 5.55798319,11.112605 C5.55798319,11.512605 5.87731092,11.8386555 6.27058824,11.8386555 L7.39327731,11.8386555 L7.39327731,14.0705882 L6.28067227,14.0705882 C5.88739496,14.0705882 5.56806723,14.3966387 5.56806723,14.7966387 L5.56806723,17.5159664 C5.56806723,17.9159664 5.88739496,18.2420168 6.28067227,18.2420168 L9.88067227,18.2420168 C10.2739496,18.2420168 10.5932773,17.9159664 10.5932773,17.5159664 L10.5932773,14.7966387 C10.5932773,14.3966387 10.2739496,14.0705882 9.88067227,14.0705882 L8.81848739,14.0705882 L8.81848739,13.4789916 L9.90756303,13.4789916 C10.3008403,13.4789916 10.6201681,13.1529412 10.6201681,12.7529412 C10.6201681,12.3529412 10.3008403,12.0268908 9.90756303,12.0268908 L8.81848739,12.0268908 L8.81848739,10.1983193 L9.90756303,10.1983193 C10.3008403,10.1983193 10.6201681,9.87226891 10.6201681,9.47226891 C10.6201681,9.07226891 10.3008403,8.74621849 9.90756303,8.74621849 L8.81848739,8.74621849 L8.81848739,6.91764706 L9.90756303,6.91764706 C10.3008403,6.91764706 10.6201681,6.59159664 10.6201681,6.19159664 C10.6201681,5.79159664 10.3008403,5.46554622 9.90756303,5.46554622 L8.81848739,5.46554622 L8.81848739,3.63697479 L9.90756303,3.63697479 C10.3008403,3.63697479 10.6201681,3.31092437 10.6201681,2.91092437 C10.6201681,2.51092437 10.3008403,2.18487395 9.90756303,2.18487395 L8.81848739,2.18487395 L8.81848739,1.4487395 L12.4151261,1.4487395 L12.4151261,4.11764706 C12.4151261,5.31092437 12.8218487,6.3394958 13.5882353,7.09243697 C14.3478992,7.83865546 15.3831933,8.23529412 16.5798319,8.23529412 L19.3159664,8.23529412 L19.3159664,21.9663866 L19.3193277,21.9663866 Z M13.8436975,1.98991597 L18.7210084,6.78655462 L16.5798319,6.78655462 C15.7596639,6.78655462 15.0672269,6.53109244 14.5798319,6.05378151 C14.0991597,5.57983193 13.8436975,4.91092437 13.8436975,4.1210084 L13.8436975,1.98991597 Z M20.4352941,6.45042017 L14.1764706,0.295798319 C13.9815126,0.104201681 13.7260504,0 13.4537815,0 L4.68739496,0 C3.81680672,0 3.02689076,0.789915966 3.02689076,1.65714286 L3.02689076,21.9663866 C3.02689076,22.8470588 3.80336134,23.6235294 4.68739496,23.6235294 L19.0840336,23.6235294 C19.9848739,23.6235294 20.7445378,22.8638655 20.7445378,21.9663866 L20.7445378,7.19663866 C20.7445378,6.91764706 20.6336134,6.64537815 20.4352941,6.45042017 L20.4352941,6.45042017 Z" id="Archivo-comprimido_2Regular"></path>
        </g>
    </g>
</svg>

<svg width="24" height="24" viewBox="0 0 24 24" xmlns="http://www.w3.org/2000/svg"><path d="M6.997 16.79h2.171v-.978H6.997v.978zm12.322 5.176c0 .088-.114.205-.232.205h-14.4c-.117 0-.235-.13-.235-.205V1.657c.007-.074.145-.208.235-.208h2.706v2.376H6.271a.72.72 0 00-.713.726c0 .4.32.726.713.726h1.122v1.829H6.271a.72.72 0 00-.713.726c0 .4.32.726.713.726h1.122v1.829H6.271a.72.72 0 00-.713.726c0 .4.32.726.713.726h1.122v2.232H6.281a.72.72 0 00-.713.726v2.719c0 .4.32.726.713.726h3.6a.72.72 0 00.712-.726v-2.72a.72.72 0 00-.712-.725H8.818v-.592h1.09a.72.72 0 00.712-.726.72.72 0 00-.712-.726h-1.09v-1.829h1.09a.72.72 0 00.712-.726.72.72 0 00-.712-.726h-1.09V6.918h1.09a.72.72 0 00.712-.726.72.72 0 00-.712-.726h-1.09V3.637h1.09a.72.72 0 00.712-.726.72.72 0 00-.712-.726h-1.09v-.736h3.597v2.669c0 1.193.407 2.221 1.173 2.974.76.747 1.795 1.143 2.992 1.143h2.736v13.731h.003zM13.844 1.99l4.877 4.797H16.58c-.82 0-1.513-.256-2-.733-.48-.474-.736-1.143-.736-1.933V1.99zm6.591 4.46L14.176.296A1.023 1.023 0 0013.454 0H4.687c-.87 0-1.66.79-1.66 1.657v20.31c0 .88.776 1.657 1.66 1.657h14.397c.9 0 1.66-.76 1.66-1.658V7.196c0-.278-.11-.55-.309-.746z" fill="#5CB615" fill-rule="nonzero"/></svg>
